configs/network-icons/xmas.svg

<svg width="30" height="30" viewBox="0 0 30 30" fill="none" xmlns="http://www.w3.org/2000/svg">
<g clip-path="url(#clip0_11110_48802)">
<path fill-rule="evenodd" clip-rule="evenodd" d="M5.4179 1C5.4179 0.447715 5.86562 0 6.4179 0H10.8613C11.4136 0 11.8613 0.447716 11.8613 1V5.19658C11.8613 5.74887 11.4136 6.19658 10.8613 6.19658H7.44341C6.89113 6.19658 6.44341 6.6443 6.44341 7.19658V28.7433C6.44341 29.2956 5.9957 29.7433 5.44341 29.7433H1C0.447715 29.7433 0 29.2956 0 28.7433V7.19634C0 6.64405 0.447714 6.19634 0.999999 6.19634H4.4179C4.97019 6.19634 5.4179 5.74862 5.4179 5.19634V1ZM18.3479 1C18.3479 0.447715 18.7956 0 19.3479 0H23.7913C24.3436 0 24.7913 0.447715 24.7913 1V4.94873C24.7913 5.50102 25.2391 5.94873 25.7913 5.94873H28.9842C29.5365 5.94873 29.9842 6.39645 29.9842 6.94873V28.4957C29.9842 29.048 29.5365 29.4957 28.9842 29.4957H24.5408C23.9885 29.4957 23.5408 29.048 23.5408 28.4957V7.19658C23.5408 6.6443 23.0931 6.19658 22.5408 6.19658H19.3479C18.7956 6.19658 18.3479 5.74887 18.3479 5.19658V1Z" fill="url(#paint0_linear_11110_48802)"/>
<path d="M12.1935 9.16861L5.1377 29.443H19.2493L12.1935 9.16861Z" fill="#6DC04D"/>
<path fill-rule="evenodd" clip-rule="evenodd" d="M12.1933 8.03079L19.7713 29.8058H4.61523L12.1933 8.03079ZM5.65971 29.0802H18.7268L12.1933 10.3064L5.65971 29.0802Z" fill="#303C42"/>
<path d="M18.6174 29.4793L18.5361 29.5579C18.4172 29.6728 18.2171 29.6728 18.0982 29.5579L8.47781 20.2581C8.35896 20.1433 8.35896 19.9498 8.47781 19.8349L8.55912 19.7563C8.67797 19.6414 8.87814 19.6414 8.99698 19.7563L18.6174 29.056C18.7362 29.1709 18.7362 29.3644 18.6174 29.4793Z" fill="#303C42"/>
<path d="M8.69753 19.9256L8.77885 20.0042C8.8977 20.1191 9.09786 20.1191 9.21671 20.0042L14.2458 15.1427C14.3647 15.0278 14.3647 14.8343 14.2458 14.7194L14.1645 14.6408C14.0457 14.5259 13.8455 14.5259 13.7267 14.6408L8.69753 19.5023C8.57869 19.6172 8.57869 19.8107 8.69753 19.9256Z" fill="#303C42"/>
<path d="M19.699 15.4156L14.8013 29.4922H24.5906L19.699 15.4156Z" fill="#85D46B"/>
<path fill-rule="evenodd" clip-rule="evenodd" d="M19.7 14.277L25.1133 29.855H14.2798L19.7 14.277ZM15.3242 29.1294H24.0693L19.6995 16.5544L15.3242 29.1294Z" fill="#303C42"/>
<path d="M15.121 29.3411L15.2898 29.5043C15.3899 29.6011 15.5526 29.6011 15.6526 29.5043L22.2706 23.107C22.3707 23.0102 22.3707 22.853 22.2706 22.7563L22.1017 22.593C22.0016 22.4963 21.839 22.4963 21.7389 22.593L15.121 28.9903C15.0209 29.0871 15.0209 29.2443 15.121 29.3411Z" fill="#303C42"/>
<path d="M19.9642 12.8125C19.9151 12.7064 19.8089 12.6385 19.692 12.6385C19.5751 12.6385 19.4688 12.7064 19.4197 12.8125L18.8008 14.1499L17.3192 14.479C17.2078 14.5037 17.1201 14.5895 17.0929 14.7003C17.0657 14.8111 17.1037 14.9278 17.191 15.0013L18.2622 15.9038L18.0332 17.3532C18.0152 17.4668 18.0638 17.5807 18.1583 17.6464C18.2528 17.712 18.3765 17.7179 18.4768 17.6614L19.692 16.9767L20.9072 17.6614C21.0074 17.7179 21.1311 17.712 21.2256 17.6464C21.3201 17.5807 21.3687 17.4668 21.3508 17.3532L21.1217 15.9038L22.1929 15.0013C22.2802 14.9278 22.3182 14.8111 22.291 14.7003C22.2638 14.5895 22.1761 14.5037 22.0647 14.479L20.5831 14.1499L19.9642 12.8125Z" fill="#FFCF01" stroke="#303C42" stroke-width="0.6" stroke-linejoin="round"/>
<path d="M12.4257 7.60735C12.3766 7.50125 12.2703 7.43334 12.1534 7.43334C12.0365 7.43334 11.9302 7.50125 11.8811 7.60735L11.2622 8.94478L9.78065 9.27386C9.66927 9.2986 9.58156 9.38438 9.55436 9.49519C9.52715 9.606 9.56516 9.72264 9.65242 9.79616L10.7236 10.6986L10.4946 12.148C10.4766 12.2617 10.5253 12.3756 10.6197 12.4412C10.7142 12.5069 10.8379 12.5127 10.9382 12.4562L12.1534 11.7715L13.3686 12.4562C13.4688 12.5127 13.5926 12.5069 13.687 12.4412C13.7815 12.3756 13.8302 12.2617 13.8122 12.148L13.5832 10.6986L14.6544 9.79616C14.7416 9.72264 14.7796 9.606 14.7524 9.49519C14.7252 9.38438 14.6375 9.2986 14.5261 9.27386L13.0446 8.94478L12.4257 7.60735Z" fill="#FFCF01" stroke="#303C42" stroke-width="0.6" stroke-linejoin="round"/>
<path d="M12.6405 18.0198C13.2424 18.0198 13.7303 17.5481 13.7303 16.9664C13.7303 16.3846 13.2424 15.9129 12.6405 15.9129C12.0387 15.9129 11.5508 16.3846 11.5508 16.9664C11.5508 17.5481 12.0387 18.0198 12.6405 18.0198Z" fill="#FFCF01"/>
<path d="M11.1015 23.9685C11.7033 23.9685 12.1912 23.4968 12.1912 22.9151C12.1912 22.3333 11.7033 21.8616 11.1015 21.8616C10.4996 21.8616 10.0117 22.3333 10.0117 22.9151C10.0117 23.4968 10.4996 23.9685 11.1015 23.9685Z" fill="#FFCF01"/>
<path d="M20.3329 25.4557C20.9348 25.4557 21.4227 24.984 21.4227 24.4022C21.4227 23.8204 20.9348 23.3488 20.3329 23.3488C19.7311 23.3488 19.2432 23.8204 19.2432 24.4022C19.2432 24.984 19.7311 25.4557 20.3329 25.4557Z" fill="#FFCF01"/>
<g style="mix-blend-mode:multiply" opacity="0.3">
<path d="M0 23.7972C0 23.7972 3.84615 26.8542 6.15385 25.2821C8.88335 23.4226 9.37363 25.2175 12.3077 23.7972C15.3846 22.3077 16.3839 25.8315 19.2308 26.1554C22.2347 26.4972 24.6154 24.4087 26.9231 25.2821C29.9359 26.4222 30 23.7972 30 23.7972V27.5136C30 28.0659 29.5523 28.5136 29 28.5136H1C0.447716 28.5136 0 28.0659 0 27.5136V23.7972Z" fill="#2B79BA"/>
</g>
<path d="M0 25.2844C0 25.2844 3.84615 28.3414 6.15385 26.7692C8.88335 24.9097 9.37363 26.7047 12.3077 25.2844C15.3846 23.7949 16.3839 27.3186 19.2308 27.6426C22.2347 27.9843 24.6154 25.8959 26.9231 26.7692C29.9359 27.9094 30 25.2844 30 25.2844V29.0008C30 29.553 29.5523 30.0008 29 30.0008H1C0.447716 30.0008 0 29.553 0 29.0008V25.2844Z" fill="url(#paint1_linear_11110_48802)"/>
<ellipse cx="3.84589" cy="20.0769" rx="0.769231" ry="0.74359" fill="url(#paint2_linear_11110_48802)"/>
<ellipse cx="6.92304" cy="15.6154" rx="0.769231" ry="0.74359" fill="url(#paint3_linear_11110_48802)"/>
<ellipse cx="19.2307" cy="9.66665" rx="0.769231" ry="0.74359" fill="url(#paint4_linear_11110_48802)"/>
<ellipse cx="3.46128" cy="15.2436" rx="0.384615" ry="0.371795" fill="url(#paint5_linear_11110_48802)"/>
<ellipse cx="1.92319" cy="16.7308" rx="0.384615" ry="0.371795" fill="url(#paint6_linear_11110_48802)"/>
<ellipse cx="9.61508" cy="3.34616" rx="0.384615" ry="0.371795" fill="url(#paint7_linear_11110_48802)"/>
<ellipse cx="21.9227" cy="3.34616" rx="0.384615" ry="0.371795" fill="url(#paint8_linear_11110_48802)"/>
<ellipse cx="24.9998" cy="13.7564" rx="0.384615" ry="0.371795" fill="url(#paint9_linear_11110_48802)"/>
<ellipse cx="28.0765" cy="18.218" rx="0.384615" ry="0.371795" fill="url(#paint10_linear_11110_48802)"/>
<ellipse cx="26.5384" cy="19.7051" rx="0.384615" ry="0.371795" fill="url(#paint11_linear_11110_48802)"/>
<ellipse cx="28.0765" cy="22.6795" rx="0.384615" ry="0.371795" fill="url(#paint12_linear_11110_48802)"/>
<ellipse cx="26.923" cy="11.1538" rx="0.769231" ry="0.74359" fill="url(#paint13_linear_11110_48802)"/>
<ellipse cx="20.7692" cy="2.23077" rx="0.769231" ry="0.74359" fill="url(#paint14_linear_11110_48802)"/>
<ellipse cx="2.30781" cy="9.66665" rx="0.769231" ry="0.74359" fill="url(#paint15_linear_11110_48802)"/>
<path opacity="0.3" fill-rule="evenodd" clip-rule="evenodd" d="M7.84612 0L7.13068 4.46154L6.15381 0H7.84612ZM9.53883 6.19888e-06L8.8234 2.97437L7.84652 6.19888e-06H9.53883Z" fill="black"/>
<path fill-rule="evenodd" clip-rule="evenodd" d="M7.69227 0L7.04187 4.46154L6.15381 0H7.69227ZM9.23092 6.19888e-06L8.58053 2.97437L7.69246 6.19888e-06H9.23092Z" fill="url(#paint16_linear_11110_48802)"/>
<path fill-rule="evenodd" clip-rule="evenodd" d="M27.6922 5.94939L27.0419 10.1128L26.1538 5.94873H27.6923L27.6923 5.94875H29.2304L28.58 8.03081L27.6922 5.94939Z" fill="black" fill-opacity="0.08"/>
<path fill-rule="evenodd" clip-rule="evenodd" d="M29.2304 5.94873L28.58 7.43591L27.6922 5.94919L27.0419 8.92309L26.1538 5.94873H27.6919L27.6919 5.94873H29.2304Z" fill="url(#paint17_linear_11110_48802)"/>
</g>
<defs>
<linearGradient id="paint0_linear_11110_48802" x1="14.9921" y1="0" x2="14.9921" y2="29.7433" gradientUnits="userSpaceOnUse">
<stop stop-color="#36B6FE"/>
<stop offset="1" stop-color="#3184D0"/>
</linearGradient>
<linearGradient id="paint1_linear_11110_48802" x1="15" y1="25.2418" x2="15" y2="30.0007" gradientUnits="userSpaceOnUse">
<stop stop-color="white"/>
<stop offset="1" stop-color="#C2D1D8"/>
</linearGradient>
<linearGradient id="paint2_linear_11110_48802" x1="3.84589" y1="19.3333" x2="3.84589" y2="20.8205" gradientUnits="userSpaceOnUse">
<stop stop-color="#D9D9D9"/>
<stop offset="1" stop-color="white"/>
</linearGradient>
<linearGradient id="paint3_linear_11110_48802" x1="6.92304" y1="14.8718" x2="6.92304" y2="16.359" gradientUnits="userSpaceOnUse">
<stop stop-color="#D9D9D9"/>
<stop offset="1" stop-color="white"/>
</linearGradient>
<linearGradient id="paint4_linear_11110_48802" x1="21.5383" y1="-2.23078" x2="18.6591" y2="17.8744" gradientUnits="userSpaceOnUse">
<stop stop-color="#D9D9D9"/>
<stop offset="1" stop-color="#D7F3FF"/>
</linearGradient>
<linearGradient id="paint5_linear_11110_48802" x1="3.46128" y1="14.8718" x2="3.46128" y2="15.6154" gradientUnits="userSpaceOnUse">
<stop stop-color="#D9D9D9"/>
<stop offset="1" stop-color="white"/>
</linearGradient>
<linearGradient id="paint6_linear_11110_48802" x1="1.92319" y1="16.359" x2="1.92319" y2="17.1026" gradientUnits="userSpaceOnUse">
<stop stop-color="#D9D9D9"/>
<stop offset="1" stop-color="white"/>
</linearGradient>
<linearGradient id="paint7_linear_11110_48802" x1="9.61508" y1="2.97437" x2="9.61508" y2="3.71795" gradientUnits="userSpaceOnUse">
<stop stop-color="#D9D9D9"/>
<stop offset="1" stop-color="white"/>
</linearGradient>
<linearGradient id="paint8_linear_11110_48802" x1="21.9227" y1="2.97437" x2="21.9227" y2="3.71795" gradientUnits="userSpaceOnUse">
<stop stop-color="#D9D9D9"/>
<stop offset="1" stop-color="white"/>
</linearGradient>
<linearGradient id="paint9_linear_11110_48802" x1="24.9998" y1="13.3846" x2="24.9998" y2="14.1282" gradientUnits="userSpaceOnUse">
<stop stop-color="#D9D9D9"/>
<stop offset="1" stop-color="white"/>
</linearGradient>
<linearGradient id="paint10_linear_11110_48802" x1="28.0765" y1="17.8462" x2="28.0765" y2="18.5898" gradientUnits="userSpaceOnUse">
<stop stop-color="#D9D9D9"/>
<stop offset="1" stop-color="white"/>
</linearGradient>
<linearGradient id="paint11_linear_11110_48802" x1="26.5384" y1="19.3333" x2="26.5384" y2="20.0769" gradientUnits="userSpaceOnUse">
<stop stop-color="#D9D9D9"/>
<stop offset="1" stop-color="white"/>
</linearGradient>
<linearGradient id="paint12_linear_11110_48802" x1="28.0765" y1="22.3077" x2="28.0765" y2="23.0513" gradientUnits="userSpaceOnUse">
<stop stop-color="#D9D9D9"/>
<stop offset="1" stop-color="white"/>
</linearGradient>
<linearGradient id="paint13_linear_11110_48802" x1="26.923" y1="10.4102" x2="26.923" y2="11.8974" gradientUnits="userSpaceOnUse">
<stop stop-color="#D9D9D9"/>
<stop offset="1" stop-color="white"/>
</linearGradient>
<linearGradient id="paint14_linear_11110_48802" x1="20.7692" y1="1.48718" x2="20.7692" y2="2.97436" gradientUnits="userSpaceOnUse">
<stop stop-color="#D9D9D9"/>
<stop offset="1" stop-color="white"/>
</linearGradient>
<linearGradient id="paint15_linear_11110_48802" x1="2.30781" y1="8.92307" x2="2.30781" y2="10.4102" gradientUnits="userSpaceOnUse">
<stop stop-color="#D9D9D9"/>
<stop offset="1" stop-color="white"/>
</linearGradient>
<linearGradient id="paint16_linear_11110_48802" x1="7.04204" y1="4.46154" x2="7.04204" y2="-2.23077" gradientUnits="userSpaceOnUse">
<stop stop-color="#D9D9D9"/>
<stop offset="1" stop-color="#FBFEFF"/>
</linearGradient>
<linearGradient id="paint17_linear_11110_48802" x1="28.5802" y1="7.43591" x2="28.5802" y2="5.20514" gradientUnits="userSpaceOnUse">
<stop stop-color="#D9D9D9"/>
<stop offset="1" stop-color="#FBFEFF"/>
</linearGradient>
<clipPath id="clip0_11110_48802">
<rect width="30" height="30" fill="white"/>
</clipPath>
</defs>
</svg>

<svg xmlns="http://www.w3.org/2000/svg" fill="none" viewBox="0 0 30 30">
  <g clip-path="url(#xmas_svg__a)">
    <path fill="url(#xmas_svg__b)" fill-rule="evenodd" d="M5.418 1a1 1 0 0 1 1-1h4.443a1 1 0 0 1 1 1v4.197a1 1 0 0 1-1 1H7.443a1 1 0 0 0-1 1v21.546a1 1 0 0 1-1 1H1a1 1 0 0 1-1-1V7.196a1 1 0 0 1 1-1h3.418a1 1 0 0 0 1-1V1Zm12.93 0a1 1 0 0 1 1-1h4.443a1 1 0 0 1 1 1v3.949a1 1 0 0 0 1 1h3.193a1 1 0 0 1 1 1v21.547a1 1 0 0 1-1 1h-4.443a1 1 0 0 1-1-1v-21.3a1 1 0 0 0-1-1h-3.193a1 1 0 0 1-1-1V1Z" clip-rule="evenodd"/>
    <path fill="#6DC04D" d="M12.194 9.169 5.138 29.443h14.111L12.194 9.169Z"/>
    <path fill="#303C42" fill-rule="evenodd" d="m12.193 8.03 7.578 21.776H4.615L12.193 8.03ZM5.66 29.08h13.067l-6.534-18.774L5.66 29.08Z" clip-rule="evenodd"/>
    <path fill="#303C42" d="m18.617 29.48-.08.078a.321.321 0 0 1-.439 0l-9.62-9.3a.296.296 0 0 1 0-.423l.081-.079a.321.321 0 0 1 .438 0l9.62 9.3a.296.296 0 0 1 0 .423Z"/>
    <path fill="#303C42" d="m8.698 19.926.08.078a.321.321 0 0 0 .439 0l5.029-4.861a.296.296 0 0 0 0-.424l-.082-.078a.321.321 0 0 0-.437 0l-5.03 4.861a.296.296 0 0 0 0 .424Z"/>
    <path fill="#85D46B" d="m19.699 15.416-4.898 14.076h9.79l-4.892-14.076Z"/>
    <path fill="#303C42" fill-rule="evenodd" d="m19.7 14.277 5.413 15.578H14.28l5.42-15.578Zm-4.376 14.852h8.745L19.7 16.554 15.325 29.13Z" clip-rule="evenodd"/>
    <path fill="#303C42" d="m15.121 29.341.169.163c.1.097.263.097.363 0l6.618-6.397c.1-.097.1-.254 0-.35l-.17-.164a.263.263 0 0 0-.362 0L15.12 28.99c-.1.097-.1.254 0 .351Z"/>
    <path fill="#FFCF01" stroke="#303C42" stroke-linejoin="round" stroke-width=".6" d="M19.964 12.813a.3.3 0 0 0-.544 0l-.62 1.337-1.48.329a.3.3 0 0 0-.129.522l1.071.903-.229 1.45a.3.3 0 0 0 .444.307l1.215-.684 1.215.684a.3.3 0 0 0 .444-.308l-.23-1.45 1.072-.902a.3.3 0 0 0-.128-.522l-1.482-.33-.619-1.336Zm-7.538-5.206a.3.3 0 0 0-.545 0l-.619 1.338-1.481.329a.3.3 0 0 0-.129.522l1.072.903-.23 1.449a.3.3 0 0 0 .444.308l1.215-.684 1.216.684a.3.3 0 0 0 .443-.308l-.229-1.45 1.071-.902a.3.3 0 0 0-.128-.522l-1.481-.33-.62-1.337Z"/>
    <path fill="#FFCF01" d="M12.64 18.02c.602 0 1.09-.472 1.09-1.054 0-.581-.488-1.053-1.09-1.053-.601 0-1.09.472-1.09 1.053 0 .582.489 1.054 1.09 1.054Zm-1.539 5.948c.602 0 1.09-.471 1.09-1.053s-.488-1.053-1.09-1.053c-.601 0-1.09.471-1.09 1.053s.489 1.053 1.09 1.053Zm9.232 1.488c.602 0 1.09-.472 1.09-1.054 0-.582-.488-1.053-1.09-1.053-.602 0-1.09.471-1.09 1.053s.488 1.054 1.09 1.054Z"/>
    <path fill="#2B79BA" d="M0 23.797s3.846 3.057 6.154 1.485c2.73-1.86 3.22-.064 6.154-1.485 3.077-1.49 4.076 2.034 6.923 2.358 3.004.342 5.384-1.746 7.692-.873C29.936 26.422 30 23.797 30 23.797v3.717a1 1 0 0 1-1 1H1a1 1 0 0 1-1-1v-3.717Z" opacity=".3" style="mix-blend-mode:multiply"/>
    <path fill="url(#xmas_svg__c)" d="M0 25.284s3.846 3.057 6.154 1.485c2.73-1.86 3.22-.064 6.154-1.485 3.077-1.49 4.076 2.035 6.923 2.359 3.004.341 5.384-1.747 7.692-.874C29.936 27.91 30 25.284 30 25.284v3.717a1 1 0 0 1-1 1H1a1 1 0 0 1-1-1v-3.717Z"/>
    <ellipse cx="3.846" cy="20.077" fill="url(#xmas_svg__d)" rx=".769" ry=".744"/>
    <ellipse cx="6.923" cy="15.615" fill="url(#xmas_svg__e)" rx=".769" ry=".744"/>
    <ellipse cx="19.231" cy="9.667" fill="url(#xmas_svg__f)" rx=".769" ry=".744"/>
    <ellipse cx="3.461" cy="15.244" fill="url(#xmas_svg__g)" rx=".385" ry=".372"/>
    <ellipse cx="1.923" cy="16.731" fill="url(#xmas_svg__h)" rx=".385" ry=".372"/>
    <ellipse cx="9.615" cy="3.346" fill="url(#xmas_svg__i)" rx=".385" ry=".372"/>
    <ellipse cx="21.923" cy="3.346" fill="url(#xmas_svg__j)" rx=".385" ry=".372"/>
    <ellipse cx="25" cy="13.756" fill="url(#xmas_svg__k)" rx=".385" ry=".372"/>
    <ellipse cx="28.076" cy="18.218" fill="url(#xmas_svg__l)" rx=".385" ry=".372"/>
    <ellipse cx="26.538" cy="19.705" fill="url(#xmas_svg__m)" rx=".385" ry=".372"/>
    <ellipse cx="28.076" cy="22.68" fill="url(#xmas_svg__n)" rx=".385" ry=".372"/>
    <ellipse cx="26.923" cy="11.154" fill="url(#xmas_svg__o)" rx=".769" ry=".744"/>
    <ellipse cx="20.769" cy="2.231" fill="url(#xmas_svg__p)" rx=".769" ry=".744"/>
    <ellipse cx="2.308" cy="9.667" fill="url(#xmas_svg__q)" rx=".769" ry=".744"/>
    <path fill="#000" fill-rule="evenodd" d="m7.846 0-.715 4.462L6.154 0h1.692ZM9.54 0l-.716 2.974L7.847 0h1.692Z" clip-rule="evenodd" opacity=".3"/>
    <path fill="url(#xmas_svg__r)" fill-rule="evenodd" d="m7.692 0-.65 4.462L6.154 0h1.538Zm1.539 0-.65 2.974L7.692 0h1.539Z" clip-rule="evenodd"/>
    <path fill="#000" fill-opacity=".08" fill-rule="evenodd" d="m27.692 5.95-.65 4.163-.888-4.164h3.076l-.65 2.082-.888-2.082Z" clip-rule="evenodd"/>
    <path fill="url(#xmas_svg__s)" fill-rule="evenodd" d="m29.23 5.949-.65 1.487-.888-1.487-.65 2.974-.888-2.974h3.076Z" clip-rule="evenodd"/>
  </g>
  <defs>
    <linearGradient id="xmas_svg__b" x1="14.992" x2="14.992" y1="0" y2="29.743" gradientUnits="userSpaceOnUse">
      <stop stop-color="#36B6FE"/>
      <stop offset="1" stop-color="#3184D0"/>
    </linearGradient>
    <linearGradient id="xmas_svg__c" x1="15" x2="15" y1="25.242" y2="30.001" gradientUnits="userSpaceOnUse">
      <stop stop-color="#fff"/>
      <stop offset="1" stop-color="#C2D1D8"/>
    </linearGradient>
    <linearGradient id="xmas_svg__d" x1="3.846" x2="3.846" y1="19.333" y2="20.82" gradientUnits="userSpaceOnUse">
      <stop stop-color="#D9D9D9"/>
      <stop offset="1" stop-color="#fff"/>
    </linearGradient>
    <linearGradient id="xmas_svg__e" x1="6.923" x2="6.923" y1="14.872" y2="16.359" gradientUnits="userSpaceOnUse">
      <stop stop-color="#D9D9D9"/>
      <stop offset="1" stop-color="#fff"/>
    </linearGradient>
    <linearGradient id="xmas_svg__f" x1="21.538" x2="18.659" y1="-2.231" y2="17.874" gradientUnits="userSpaceOnUse">
      <stop stop-color="#D9D9D9"/>
      <stop offset="1" stop-color="#D7F3FF"/>
    </linearGradient>
    <linearGradient id="xmas_svg__g" x1="3.461" x2="3.461" y1="14.872" y2="15.615" gradientUnits="userSpaceOnUse">
      <stop stop-color="#D9D9D9"/>
      <stop offset="1" stop-color="#fff"/>
    </linearGradient>
    <linearGradient id="xmas_svg__h" x1="1.923" x2="1.923" y1="16.359" y2="17.103" gradientUnits="userSpaceOnUse">
      <stop stop-color="#D9D9D9"/>
      <stop offset="1" stop-color="#fff"/>
    </linearGradient>
    <linearGradient id="xmas_svg__i" x1="9.615" x2="9.615" y1="2.974" y2="3.718" gradientUnits="userSpaceOnUse">
      <stop stop-color="#D9D9D9"/>
      <stop offset="1" stop-color="#fff"/>
    </linearGradient>
    <linearGradient id="xmas_svg__j" x1="21.923" x2="21.923" y1="2.974" y2="3.718" gradientUnits="userSpaceOnUse">
      <stop stop-color="#D9D9D9"/>
      <stop offset="1" stop-color="#fff"/>
    </linearGradient>
    <linearGradient id="xmas_svg__k" x1="25" x2="25" y1="13.385" y2="14.128" gradientUnits="userSpaceOnUse">
      <stop stop-color="#D9D9D9"/>
      <stop offset="1" stop-color="#fff"/>
    </linearGradient>
    <linearGradient id="xmas_svg__l" x1="28.076" x2="28.076" y1="17.846" y2="18.59" gradientUnits="userSpaceOnUse">
      <stop stop-color="#D9D9D9"/>
      <stop offset="1" stop-color="#fff"/>
    </linearGradient>
    <linearGradient id="xmas_svg__m" x1="26.538" x2="26.538" y1="19.333" y2="20.077" gradientUnits="userSpaceOnUse">
      <stop stop-color="#D9D9D9"/>
      <stop offset="1" stop-color="#fff"/>
    </linearGradient>
    <linearGradient id="xmas_svg__n" x1="28.076" x2="28.076" y1="22.308" y2="23.051" gradientUnits="userSpaceOnUse">
      <stop stop-color="#D9D9D9"/>
      <stop offset="1" stop-color="#fff"/>
    </linearGradient>
    <linearGradient id="xmas_svg__o" x1="26.923" x2="26.923" y1="10.41" y2="11.897" gradientUnits="userSpaceOnUse">
      <stop stop-color="#D9D9D9"/>
      <stop offset="1" stop-color="#fff"/>
    </linearGradient>
    <linearGradient id="xmas_svg__p" x1="20.769" x2="20.769" y1="1.487" y2="2.974" gradientUnits="userSpaceOnUse">
      <stop stop-color="#D9D9D9"/>
      <stop offset="1" stop-color="#fff"/>
    </linearGradient>
    <linearGradient id="xmas_svg__q" x1="2.308" x2="2.308" y1="8.923" y2="10.41" gradientUnits="userSpaceOnUse">
      <stop stop-color="#D9D9D9"/>
      <stop offset="1" stop-color="#fff"/>
    </linearGradient>
    <linearGradient id="xmas_svg__r" x1="7.042" x2="7.042" y1="4.462" y2="-2.231" gradientUnits="userSpaceOnUse">
      <stop stop-color="#D9D9D9"/>
      <stop offset="1" stop-color="#FBFEFF"/>
    </linearGradient>
    <linearGradient id="xmas_svg__s" x1="28.58" x2="28.58" y1="7.436" y2="5.205" gradientUnits="userSpaceOnUse">
      <stop stop-color="#D9D9D9"/>
      <stop offset="1" stop-color="#FBFEFF"/>
    </linearGradient>
    <clipPath id="xmas_svg__a">
      <path fill="#fff" d="M0 0h30v30H0z"/>
    </clipPath>
  </defs>
</svg>
